X: 1
T: Courtown Harbour
M: 6/8
L: 1/8
R: jig
K: Dmaj
DE |: F2d BAF | FAF E3 | FEF dcd | BAF EDE |
F2d BAF | FAF E3 | F2D EDB, |1 DED D3 :|2 DED D2E ||
|:F2E FAd | fdB AFE | DFA d2A | Bee ede |
fed edA |B/c/dA FED | F2D EDB,|DED D2E :|
